X: 3124
T: JOHNNY GROAT'S HOUSE
Q:"Reel."
R: Reel.
%R:reel
B: James Kerr "Merry Melodies" v.3 p.15 #124
Z: 2016 John Chambers <jc:trillian.mit.edu>
N: The book is missing the bar line in the 2nd strain's 2nd ending; fixed.
M: C
L: 1/8
K: C
|:\
Gccd e2(dc) BGdc BcdB |\
Gccd e2(dc) | GcBc (dB)c2 :|\
(gf)eg (fa)gf | ecgc Bcdf |\
[1 (gf)eg (fa)gf | gefd (BG)c2 :|\
[2 ecBc AcEc | GEFE (B,G,)C2 |]

%%sep 1 1 500
%%sep 1 1 500

